src/img/event_icons/kingdom_worker.svg

<svg fill="none" height="13" viewBox="0 0 16 13" width="16" xmlns="http://www.w3.org/2000/svg"><path d="m15.875 3.46875c0 .62891-.4922 1.09375-1.0938 1.09375-.0273 0-.0273 0-.0273 0l-1.3945 7.6016c-.0547.4101-.4375.7109-.8477.7109h-9.05076c-.41016 0-.79297-.3008-.84766-.7109l-1.39453-7.6016s0 0-.02734 0c-.601566 0-1.0937538-.46484-1.0937538-1.09375 0-.60156.4921878-1.09375 1.0937538-1.09375.57421 0 1.09375.49219 1.09375 1.09375 0 .24609-.10938.46484-.2461.65625l2.46094 1.96875c.4375.32813 1.06641.19141 1.3125-.30078l1.58594-3.14453c-.30078-.19141-.51953-.51953-.51953-.92969 0-.60156.49218-1.09375 1.12109-1.09375.60156 0 1.06641.49219 1.06641 1.09375 0 .41016-.21875.73828-.54688.92969l1.58597 3.14453c.2461.49219.9023.62891 1.3398.30078l2.4336-1.96875c-.1094-.19141-.1914-.41016-.1914-.65625 0-.60156.4648-1.09375 1.0937-1.09375.6016 0 1.0938.49219 1.0938 1.09375z" fill="#000"/></svg>

<svg width="16" height="13" viewBox="0 0 16 13" fill="none" xmlns="http://www.w3.org/2000/svg">
<path d="M15.875 3.46875C15.875 4.09766 15.3828 4.5625 14.7812 4.5625C14.7539 4.5625 14.7539 4.5625 14.7539 4.5625L13.3594 12.1641C13.3047 12.5742 12.9219 12.875 12.5117 12.875H3.46094C3.05078 12.875 2.66797 12.5742 2.61328 12.1641L1.21875 4.5625C1.21875 4.5625 1.21875 4.5625 1.19141 4.5625C0.589844 4.5625 0.0976562 4.09766 0.0976562 3.46875C0.0976562 2.86719 0.589844 2.375 1.19141 2.375C1.76562 2.375 2.28516 2.86719 2.28516 3.46875C2.28516 3.71484 2.17578 3.93359 2.03906 4.125L4.5 6.09375C4.9375 6.42188 5.56641 6.28516 5.8125 5.79297L7.39844 2.64844C7.09766 2.45703 6.87891 2.12891 6.87891 1.71875C6.87891 1.11719 7.37109 0.625 8 0.625C8.60156 0.625 9.06641 1.11719 9.06641 1.71875C9.06641 2.12891 8.84766 2.45703 8.51953 2.64844L10.1055 5.79297C10.3516 6.28516 11.0078 6.42188 11.4453 6.09375L13.8789 4.125C13.7695 3.93359 13.6875 3.71484 13.6875 3.46875C13.6875 2.86719 14.1523 2.375 14.7812 2.375C15.3828 2.375 15.875 2.86719 15.875 3.46875Z" fill="black"/>
</svg>
